icons/solid/currency-pound.svg

<svg width="24" height="24" viewBox="0 0 24 24" fill="none" xmlns="http://www.w3.org/2000/svg">
<path fill-rule="evenodd" clip-rule="evenodd" d="M12 2.25C6.61522 2.25 2.25 6.61522 2.25 12C2.25 17.3848 6.61522 21.75 12 21.75C17.3848 21.75 21.75 17.3848 21.75 12C21.75 6.61522 17.3848 2.25 12 2.25ZM9.76273 9.51002C9.81529 9.01621 10.0302 8.53785 10.409 8.15901C11.2877 7.28033 12.7123 7.28033 13.591 8.15901C13.8839 8.4519 14.3588 8.4519 14.6517 8.15901C14.9445 7.86612 14.9445 7.39124 14.6517 7.09835C13.1872 5.63388 10.8128 5.63388 9.34835 7.09835C8.7183 7.7284 8.3587 8.52881 8.27116 9.35126C8.23849 9.6582 8.27044 9.94628 8.30277 10.1726L8.45668 11.25H8.25C7.83579 11.25 7.5 11.5858 7.5 12C7.5 12.4142 7.83579 12.75 8.25 12.75H8.67097L8.80874 13.7144C8.91661 14.4695 8.79165 15.2396 8.45053 15.9218L8.32918 16.1645C8.19352 16.4358 8.23466 16.7621 8.43341 16.9913C8.63216 17.2205 8.94939 17.3074 9.23717 17.2114L10.7757 16.6986C11.0836 16.596 11.4164 16.596 11.7243 16.6986L12.3787 16.9167C13.1335 17.1683 13.9573 17.1098 14.669 16.7539L15.3354 16.4207C15.7059 16.2355 15.8561 15.785 15.6708 15.4145C15.4856 15.044 15.0351 14.8939 14.6646 15.0791L13.9982 15.4123C13.6424 15.5902 13.2304 15.6195 12.853 15.4937L12.1987 15.2756C11.5829 15.0703 10.9171 15.0703 10.3013 15.2756L10.2401 15.296C10.3601 14.7089 10.3794 14.1022 10.2937 13.5023L10.1862 12.75H12C12.4142 12.75 12.75 12.4142 12.75 12C12.75 11.5858 12.4142 11.25 12 11.25H9.97191L9.7877 9.9605C9.7598 9.76518 9.75032 9.62664 9.76273 9.51002Z" fill="#0F172A"/>
</svg>

<svg xmlns="http://www.w3.org/2000/svg" viewBox="0 0 24 24" fill="currentColor" aria-hidden="true">
  <path fill-rule="evenodd" d="M12 2.25c-5.385 0-9.75 4.365-9.75 9.75s4.365 9.75 9.75 9.75 9.75-4.365 9.75-9.75S17.385 2.25 12 2.25zM9.763 9.51a2.25 2.25 0 013.828-1.351.75.75 0 001.06-1.06 3.75 3.75 0 00-6.38 2.252c-.033.307 0 .595.032.822l.154 1.077H8.25a.75.75 0 000 1.5h.421l.138.964a3.75 3.75 0 01-.358 2.208l-.122.242a.75.75 0 00.908 1.047l1.539-.512a1.5 1.5 0 01.948 0l.655.218a3 3 0 002.29-.163l.666-.333a.75.75 0 10-.67-1.342l-.667.333a1.5 1.5 0 01-1.145.082l-.654-.218a3 3 0 00-1.898 0l-.06.02a5.25 5.25 0 00.053-1.794l-.108-.752H12a.75.75 0 000-1.5H9.972l-.184-1.29a1.863 1.863 0 01-.025-.45z" clip-rule="evenodd"/>
</svg>
